!! George Gerswhin, "Love is Here to Stay" from
!! "Bumper Book of George Gerswhin,"
!! London: Chappell Music Ltd., 1987; pp.222-225
**kern
*M2/2
*MM[Con anima]
4a
=1
4cc
4cc
4a
4d
=2
4e
2e
4a
=3
4cc
4cc
4a
4d
=4
2.e
4a
=5
4cc
4cc
4a
4c
=6
4d
2d
4e
=7
8g
8g
2g
4f
=8
1g
=9
4dd
4cc
8b-
8a
4b-
!! page 223
=10
4cc
2cc
4f
=11
6e
6e
6e
4e
4d
=12
1e
=13
4dd
4cc
4b-
4a
=14
8g
8g
2g
4a
=15
8f#
4f#
8a
[2d
=16
2d]
2fn
=17
[1a
=18
8a]
8r
!! Refrain
4c
4d
4a
=19
1f
=20
8f
4g
8f
4g
4g
=21
1f
=22
4r
4c
4d
4cc
=23
1a
=24
8f
4g
8f
4g
4g
=25
1a
!! page 224
=26
4r
4ee
4ee
4dd
=27
2cc
4.dd
8cc
=28
8b-
8b-
4b-
4.cc
8b-
=29
4a
4a
4cc
4b-
=30
4g
4a
4a
4g
=31
4f
4g
4e
4f
=32
8r
4g
8a
4f#
4g
=33
1dd
=34
4r
4c
4d
4a
=35
1f
=36
8f
4g
8f
4g
4g
=37
1f
=38
4r
4c
4d
4cc
!! page 225
=39
1a
=40
8f
4g
8f
4g
4g
=41
1a
=42
4r
4ee
4.ee
8dd
=43
8cc
8cc
4cc
8dd
4dd
8cc
=44
8b-
8b-
4b-
8cc
4.cc
=45
8r
8a
8g#
8a
4cc
4b-
=46
2gn
2dd
=47
4r
4cc
4dd
4a
=48
2cc
2d
!! First ending.
=49
[1f
=50
4f]
!! Refrain
4c
4d
4a
=19
1f
=20
8f
4g
8f
4g
4g
=21
1f
=22
4r
4c
4d
4cc
=23
1a
=24
8f
4g
8f
4g
4g
=25
1a
!! page 224
=26
4r
4ee
4ee
4dd
=27
2cc
4.dd
8cc
=28
8b-
8b-
4b-
4.cc
8b-
=29
4a
4a
4cc
4b-
=30
4g
4a
4a
4g
=31
4f
4g
4e
4f
=32
8r
4g
8a
4f#
4g
=33
1dd
=34
4r
4c
4d
4a
=35
1f
=36
8f
4g
8f
4g
4g
=37
1f
=38
4r
4c
4d
4cc
!! page 225
=39
1a
=40
8f
4g
8f
4g
4g
=41
1a
=42
4r
4ee
4.ee
8dd
=43
8cc
8cc
4cc
8dd
4dd
8cc
=44
8b-
8b-
4b-
8cc
4.cc
=45
8r
8a
8g#
8a
4cc
4b-
=46
2gn
2dd
=47
4r
4cc
4dd
4a
=48
2cc
2d
!! Second ending.
=49
[1f
=50
2f_
4f]
4r
====
*-
